!!!ONB: MCCC : IGH0423_02 : Extracted Monophonic Melody
!!!COM: Handel, George Frideric
!!!OPR: Recorder Sonata in F major
!!!OMV: 2
!!!SCT: HWV 369 ; Op.1 No.11
!!!ODT: 1712///
**kern
*staff1
*clefG2
*k[b-]
*F:
*M2/2
8cc
8ff
8cc
8cc
8cc
8dd
8cc
=3
8r
8cc
8gg
8cc
8cc
8cc
8aa
8gg
=4
8r
8gg
8aa
8ee
8ff
8gg
16ee
32r
32dd
8cc
=5
8r
8gg
8aa
8ee
8ff
8gg
8ee
16ff
16gg
=6
8cc
8bb-
8aa
16gg
16ff
8cc
8ee
4ff
=7
8r
8aa
16gg
16ccc
16bb-
16ccc
16gg
16ccc
16bb-
16ccc
16ff
16ddd
16ccc
16ddd
=8
16bb
16ccc
16aa
16bb
16ccc
16gg
16ccc
16bb
16aa
16gg
16ff
16ee
4dd
=9
8r
8dd
16ee
16cc
16dd
16ee
16ff
16dd
16ee
16ff
16gg
16ee
16ff
16gg
=10
16cc
16gg
16ff
16gg
16aa
16ff
16ee
16ff
16dd
16aa
16gg
16aa
16bb
16gg
16ff
16gg
=11
16ee
16gg
16aa
16bb
16ccc
16aa
16bb
16gg
16aa
16ff
16gg
16ee
4ff[
=12
8ff]
8ddd
8ee
8ccc
16dd
16ccc
16bb
16ccc
4ff[
=13
8ff]
8gg
8ee
16dd
16cc
8b
8cc
4f[
=14
8f]
8ff
8ee
16dd
16cc
8b
8bb
8ccc
16bb
16aa
=15
8gg
8ff
8ee
16dd
16cc
8g
8b
4cc[
=16
8cc]
8cc
8ff
8cc
8cc
8cc
8dd
8cc
=17
8r
8cc
8gg
8cc
8cc
8cc
8aa
8gg
=18
8r
8gg
8aa
8ee
8ff
8gg
16ee
32r
32dd
8cc
=19
8r
8gg
8aa
8ee
8ff
8gg
8ee
16ff
16gg
=20
8cc
8bb-
8aa
16gg
16ff
8cc
8ee
4ff
=21
8r
8aa
16gg
16ccc
16bb-
16ccc
16gg
16ccc
16bb-
16ccc
16ff
16ddd
16ccc
16ddd
=22
16bb
16ccc
16aa
16bb
16ccc
16gg
16ccc
16bb
16aa
16gg
16ff
16ee
4dd
=23
8r
8dd
16ee
16cc
16dd
16ee
16ff
16dd
16ee
16ff
16gg
16ee
16ff
16gg
=24
16cc
16gg
16ff
16gg
16aa
16ff
16ee
16ff
16dd
16aa
16gg
16aa
16bb
16gg
16ff
16gg
=25
16ee
16gg
16aa
16bb
16ccc
16aa
16bb
16gg
16aa
16ff
16gg
16ee
4ff[
=26
8ff]
8ddd
8ee
8ccc
16dd
16ccc
16bb
16ccc
4ff[
=27
8ff]
8gg
8ee
16dd
16cc
8b
8cc
4f[
=28
8f]
8ff
8ee
16dd
16cc
8b
8bb
8ccc
16bb
16aa
=29
8gg
8ff
8ee
16dd
16cc
8g
8b
4cc[
=30
8cc]
8gg
8ccc
8gg
8gg
8gg
8aa
8gg
=31
8r
8aa
8bb-
8ff#
8gg
8aa
8ff#
8dd
=32
8r
8aa
8bb-
8ff#
8gg
8dd
8ee-
8ccc
=33
8dd
8aa
8bb-
16aa
16gg
8.ff#
16gg
4gg
=34
16r
16gg
16aa
16bb-
16ccc
16ee
16ff
16gg
16cc
16gg
16aa
16bb-
16aa
16cc
16dd
16ee
=35
16ff
16ee
16ff
16cc
16dd
16ff
16gg
16aa
16bb-
16aa
16gg
16ff
16ee
16dd
8cc
=36
16r
16ff
16ee
16ff
16dd
16b-
16a
16b-
16g
16gg
16ff
16gg
16ee
16cc
16b-
16cc
=37
16a
16aa
16gg
16aa
16ff
16dd
16cc
16dd
16b-
16bb-
16aa
16bb-
16gg
16ee
16dd
16ee
=38
16cc
16ccc
16bb-
16ccc
16aa
16gg
16aa
16ff
16ddd
16ccc
16ddd
16ff
16gg
16ff
16gg
16ee
=39
16ccc
16bb-
16ccc
16ee
16ff
16ee
16ff
16cc
8dd
8bb-
4bb-[
=40
8bb-]
16aa
16gg
8aa
16gg
16ff
8ee
8ff
4b-[
=41
8b-]
8gg
8a
8ff
8g
8ee
4bb-[
=42
8bb-]
16aa
16gg
8aa
16gg
16ff
8ee
16dd
16cc
8ff
16ee
16dd
=43
8cc
8b-
8a
8ff
8g
8ee
4ff[
=44
8ff]
8gg
8ccc
8gg
8gg
8gg
8aa
8gg
=45
8r
8aa
8bb-
8ff#
8gg
8aa
8ff#
8dd
=46
8r
8aa
8bb-
8ff#
8gg
8dd
8ee-
8ccc
=47
8dd
8aa
8bb-
16aa
16gg
8.ff#
16gg
4gg
=48
16r
16gg
16aa
16bb-
16ccc
16ee
16ff
16gg
16cc
16gg
16aa
16bb-
16aa
16cc
16dd
16ee
=49
16ff
16ee
16ff
16cc
16dd
16ff
16gg
16aa
16bb-
16aa
16gg
16ff
16ee
16dd
8cc
=50
16r
16ff
16ee
16ff
16dd
16b-
16a
16b-
16g
16gg
16ff
16gg
16ee
16cc
16b-
16cc
=51
16a
16aa
16gg
16aa
16ff
16dd
16cc
16dd
16b-
16bb-
16aa
16bb-
16gg
16ee
16dd
16ee
=52
16cc
16ccc
16bb-
16ccc
16aa
16gg
16aa
16ff
16ddd
16ccc
16ddd
16ff
16gg
16ff
16gg
16ee
=53
16ccc
16bb-
16ccc
16ee
16ff
16ee
16ff
16cc
8dd
8bb-
4bb-[
=54
8bb-]
16aa
16gg
8aa
16gg
16ff
8ee
8ff
4b-[
=55
8b-]
8gg
8a
8ff
8g
8ee
4bb-[
=56
8bb-]
16aa
16gg
8aa
16gg
16ff
8ee
16dd
16cc
8ff
16ee
16dd
=57
8cc
8b-
8a
8ff
8g
8ee
4ff[
=58
2ff]
2r
==
*-
